material/.icons/material/movie-edit-outline.svg

<svg xmlns="http://www.w3.org/2000/svg" viewBox="0 0 24 24"><path d="M21 4v4.12L19.12 10H4.76L3 6.47V18h8v2H3a2 2 0 01-2-2V6a2 2 0 012-2h1l2 4h3L7 4h2l2 4h3l-2-4h2l2 4h3l-2-4h4m.42 8.3l1.28 1.28c.22.21.22.56 0 .77l-1 1-2.05-2.05 1-1c.11-.11.25-.17.39-.17s.27.06.38.17m-.3 3.63L15.06 22H13v-2.06l6.07-6.06 2.05 2.05z"/></svg>

<?xml version="1.0" encoding="UTF-8"?><!DOCTYPE svg PUBLIC "-//W3C//DTD SVG 1.1//EN" "http://www.w3.org/Graphics/SVG/1.1/DTD/svg11.dtd"><svg xmlns="http://www.w3.org/2000/svg" xmlns:xlink="http://www.w3.org/1999/xlink" version="1.1" id="mdi-movie-edit-outline" width="24" height="24" viewBox="0 0 24 24"><path d="M21 4V8.12L19.12 10H4.76L3 6.47V18H11V20H3C1.9 20 1 19.11 1 18V6C1 4.89 1.9 4 3 4H4L6 8H9L7 4H9L11 8H14L12 4H14L16 8H19L17 4H21M21.42 12.3L22.7 13.58C22.92 13.79 22.92 14.14 22.7 14.35L21.7 15.35L19.65 13.3L20.65 12.3C20.76 12.19 20.9 12.13 21.04 12.13C21.18 12.13 21.31 12.19 21.42 12.3M21.12 15.93L15.06 22H13V19.94L19.07 13.88L21.12 15.93Z" /></svg>
